icons/aws-ses.svg

<svg xmlns="http://www.w3.org/2000/svg" viewBox="0 0 256 298.552">
  <path fill="#876929" d="M60.556 47.602 0 144.01l60.556 96.424 1.056-.753L60.837 47.8l-.281-.198"/>
  <path fill="#d9a741" d="m128.187 223.105-67.631 17.329V47.602l67.631 17.325v158.178"/>
  <path fill="#876929" d="m255.979 71.868-32.6 5.391L148.538 0l-37.207 16.292 4.908 9.153-26.333 10.526v243.428l38.28 19.153.637-.499-.589-250.235 81.142 122.968 46.603-98.918"/>
  <path fill="#d9a741" d="m148.538 0 99.679 49.837-39.417 71.52L148.538 0"/>
  <path fill="#d9a741" d="M255.975 71.868 256 234.596l-127.813 63.956-.017-277.869 80.63 146.291 47.175-95.106"/>
</svg>

<?xml version="1.0" encoding="UTF-8" standalone="no"?>
<svg width="256px" height="299px" viewBox="0 0 256 299" version="1.1" xmlns="http://www.w3.org/2000/svg" xmlns:xlink="http://www.w3.org/1999/xlink" preserveAspectRatio="xMidYMid">
	<g>
		<path d="M60.556,47.602 L0,144.01 L60.556,240.434 L61.612,239.681 L60.837,47.8 L60.556,47.602" fill="#876929"></path>
		<path d="M128.187,223.105 L60.556,240.434 L60.556,47.602 L128.187,64.927 L128.187,223.105" fill="#D9A741"></path>
		<path d="M255.979,71.868 L223.379,77.259 L148.538,0 L111.331,16.292 L116.239,25.445 L89.906,35.971 L89.906,279.399 L128.186,298.552 L128.823,298.053 L128.234,47.818 L209.376,170.786 L255.979,71.868" fill="#876929"></path>
		<path d="M148.538,0 L248.217,49.837 L208.8,121.357 L148.538,0" fill="#D9A741"></path>
		<path d="M255.975,71.868 L256,234.596 L128.187,298.552 L128.17,20.683 L208.8,166.974 L255.975,71.868" fill="#D9A741"></path>
	</g>
</svg>
